public/Img/Home/brand__second.svg

<svg width="166" height="40" viewBox="0 0 166 40" fill="none" xmlns="http://www.w3.org/2000/svg">
<g clip-path="url(#clip0_968_558)">
<path d="M40.1357 9.75708H43.9363V28.7094H40.1357V9.75708Z" fill="#1D2130"/>
<path d="M46.0641 22.2177C46.0641 20.8541 46.4551 19.5213 47.1876 18.3881C47.9202 17.255 48.9612 16.3724 50.1788 15.8524C51.3962 15.3324 52.7355 15.1983 54.0268 15.4673C55.3179 15.7362 56.5029 16.3959 57.4316 17.3629C58.3603 18.3297 58.9907 19.5604 59.243 20.8987C59.4954 22.237 59.3582 23.6227 58.849 24.8802C58.3397 26.1377 57.4813 27.2103 56.3825 27.9622C55.2838 28.7141 53.9942 29.1114 52.6771 29.1036C51.8036 29.1107 50.9375 28.937 50.1295 28.593C49.3217 28.249 48.5882 27.7414 47.9722 27.1001C47.3563 26.4588 46.8702 25.6965 46.5426 24.8581C46.2149 24.0198 46.0522 23.122 46.0641 22.2177ZM55.591 22.2177C55.576 21.6299 55.394 21.0597 55.0676 20.5783C54.7413 20.097 54.2851 19.726 53.7562 19.5117C53.2272 19.2974 52.649 19.2493 52.0938 19.3734C51.5386 19.4975 51.031 19.7884 50.6347 20.2095C50.2383 20.6308 49.9706 21.1636 49.8652 21.7414C49.7597 22.3192 49.8212 22.9164 50.0419 23.4582C50.2626 24.0001 50.6327 24.4626 51.1059 24.7878C51.5791 25.1131 52.1344 25.2867 52.7025 25.2869C53.0892 25.2947 53.4733 25.2198 53.8308 25.067C54.1883 24.914 54.5116 24.6865 54.7803 24.3984C55.049 24.1104 55.2574 23.7681 55.3925 23.3929C55.5277 23.0176 55.5866 22.6176 55.5656 22.2177H55.591Z" fill="#1D2130"/>
<path d="M74.3278 15.7259V28.0679C74.3278 32.4223 71.0339 34.2716 67.702 34.2716C66.5268 34.3715 65.348 34.1298 64.2983 33.5737C63.2485 33.0175 62.3697 32.1691 61.7604 31.1239L64.9656 29.209C65.2253 29.7511 65.6384 30.1984 66.15 30.4913C66.6615 30.7843 67.2471 30.9088 67.8287 30.8485C68.1992 30.8956 68.5753 30.8576 68.9299 30.7369C69.2846 30.6162 69.6091 30.4159 69.8802 30.1501C70.1514 29.8845 70.3624 29.5601 70.4984 29.2001C70.6342 28.8401 70.6918 28.4535 70.6665 28.0679V26.8743C70.2242 27.4295 69.6631 27.8703 69.0275 28.1617C68.392 28.4531 67.6995 28.5871 67.0053 28.5532C65.3253 28.5532 63.7141 27.8622 62.5262 26.6324C61.3383 25.4025 60.6709 23.7345 60.6709 21.9952C60.6709 20.256 61.3383 18.588 62.5262 17.3581C63.7141 16.1283 65.3253 15.4373 67.0053 15.4373C67.6995 15.4033 68.392 15.5374 69.0275 15.8288C69.6631 16.1202 70.2242 16.561 70.6665 17.1162V15.8046L74.3278 15.7259ZM70.6665 21.9558C70.6918 21.3284 70.5352 20.7074 70.2168 20.1728C69.8985 19.6382 69.4329 19.2144 68.8801 18.9558C68.3272 18.6974 67.7122 18.6161 67.1143 18.7223C66.5165 18.8286 65.9629 19.1175 65.5249 19.5521C65.087 19.9866 64.7846 20.5468 64.6566 21.1608C64.5286 21.7747 64.581 22.4142 64.8069 22.9971C65.0329 23.58 65.422 24.0795 65.9244 24.4315C66.4267 24.7835 67.0194 24.972 67.626 24.9726C68.0219 25.002 68.4193 24.9453 68.7926 24.8059C69.166 24.6665 69.5069 24.4476 69.7934 24.1633C70.08 23.879 70.3057 23.5357 70.4561 23.1554C70.6065 22.7752 70.6782 22.3666 70.6665 21.9558Z" fill="#1D2130"/>
<path d="M76.4692 22.2178C76.4692 20.8554 76.8595 19.5236 77.5909 18.391C78.3223 17.2582 79.3619 16.3757 80.5779 15.855C81.794 15.3341 83.1319 15.1985 84.4225 15.4653C85.713 15.7321 86.8981 16.3892 87.8277 17.3535C88.7574 18.3178 89.3898 19.5459 89.645 20.8825C89.9003 22.2192 89.7667 23.604 89.2614 24.862C88.756 26.12 87.9016 27.1945 86.8061 27.9495C85.7108 28.7046 84.4236 29.1062 83.1076 29.1037C82.2323 29.1124 81.3643 28.9402 80.5542 28.5971C79.7442 28.254 79.0084 27.747 78.3901 27.1056C77.7717 26.4643 77.2833 25.7016 76.9535 24.8622C76.6236 24.023 76.459 23.1239 76.4692 22.2178ZM85.9961 22.2178C85.9811 21.6294 85.7987 21.0586 85.4719 20.5771C85.1449 20.0956 84.6879 19.7245 84.1583 19.5106C83.6286 19.2967 83.0498 19.2494 82.4943 19.3745C81.9387 19.4998 81.4313 19.7919 81.0353 20.2143C80.6395 20.6368 80.3728 21.1709 80.2689 21.7495C80.1649 22.3282 80.2282 22.9258 80.4507 23.4675C80.6733 24.009 81.0454 24.4706 81.5202 24.7942C81.9951 25.1179 82.5517 25.2893 83.1203 25.287C83.507 25.2948 83.8911 25.2199 84.2486 25.0671C84.6061 24.9141 84.9294 24.6866 85.198 24.3985C85.4668 24.1105 85.6752 23.7682 85.8103 23.393C85.9455 23.0177 86.0044 22.6177 85.9834 22.2178H85.9961Z" fill="#1D2130"/>
<path d="M91.5068 12.2491C91.5068 11.7874 91.6391 11.3361 91.8869 10.9521C92.1347 10.5682 92.4869 10.2689 92.8989 10.0923C93.3109 9.91556 93.7644 9.86933 94.2018 9.95941C94.6392 10.0495 95.0411 10.2719 95.3564 10.5984C95.6718 10.9248 95.8866 11.3408 95.9736 11.7937C96.0606 12.2466 96.016 12.716 95.8452 13.1426C95.6745 13.5692 95.3855 13.9338 95.0147 14.1904C94.6438 14.4469 94.2079 14.5838 93.7619 14.5838C93.1659 14.577 92.5961 14.3288 92.1746 13.8924C91.7531 13.4561 91.5134 12.8663 91.5068 12.2491ZM91.8742 15.7249H95.6748V28.7095H91.8742V15.7249Z" fill="#1D2130"/>
<path d="M111.942 22.2173C111.985 23.0808 111.862 23.9446 111.581 24.7588C111.3 25.573 110.866 26.3218 110.304 26.9617C109.743 27.6017 109.064 28.1203 108.308 28.4878C107.552 28.8554 106.734 29.0644 105.899 29.1031C105.191 29.1519 104.481 29.0345 103.824 28.7597C103.166 28.4848 102.576 28.0598 102.098 27.5161V33.9298H98.2979V15.7249H102.098V16.9447C102.577 16.4027 103.167 15.9795 103.825 15.7069C104.482 15.4344 105.192 15.3195 105.899 15.3708C106.73 15.4096 107.545 15.6174 108.299 15.9825C109.053 16.3475 109.729 16.8626 110.29 17.4984C110.851 18.1341 111.286 18.8781 111.57 19.6877C111.853 20.4975 111.979 21.3569 111.942 22.2173ZM108.141 22.2173C108.126 21.6081 107.938 21.017 107.6 20.5183C107.262 20.0194 106.79 19.635 106.242 19.4131C105.692 19.1913 105.093 19.1419 104.518 19.2711C103.943 19.4003 103.417 19.7025 103.008 20.1396C102.598 20.5768 102.321 21.1296 102.213 21.7285C102.105 22.3276 102.17 22.9463 102.401 23.5071C102.632 24.0678 103.016 24.5458 103.508 24.881C103.999 25.2162 104.575 25.3937 105.164 25.3913C105.568 25.409 105.97 25.3383 106.344 25.1838C106.72 25.0294 107.058 24.7945 107.34 24.4948C107.621 24.1951 107.838 23.8372 107.976 23.4447C108.113 23.0523 108.17 22.634 108.141 22.2173Z" fill="#1D2130"/>
<path d="M123.508 24.8141C123.508 27.8045 120.974 29.0767 118.289 29.0767C117.193 29.1788 116.093 28.9384 115.131 28.3866C114.169 27.8348 113.389 26.997 112.892 25.9813L116.16 24.0665C116.29 24.5345 116.57 24.9423 116.956 25.2216C117.341 25.5009 117.806 25.6349 118.276 25.601C119.175 25.601 119.631 25.3125 119.631 24.7878C119.631 23.3583 113.462 24.119 113.462 19.6202C113.462 16.7872 115.768 15.3707 118.377 15.3707C119.37 15.3247 120.355 15.5577 121.23 16.0449C122.103 16.5322 122.834 17.2555 123.343 18.1382L120.075 19.9219C119.931 19.5835 119.694 19.2957 119.396 19.0931C119.096 18.8907 118.747 18.7822 118.39 18.7808C117.732 18.7808 117.338 19.0431 117.338 19.5022C117.338 20.9973 123.508 20.0137 123.508 24.8141Z" fill="#1D2130"/>
<path d="M137.279 15.7251V28.7098H133.478V27.49C133.046 28.0299 132.498 28.4573 131.877 28.7375C131.257 29.0177 130.581 29.1431 129.905 29.1033C127.371 29.1033 125.205 27.2278 125.205 23.7258V15.7251H129.006V23.1356C128.976 23.4454 129.012 23.7582 129.11 24.0525C129.208 24.3467 129.367 24.6154 129.575 24.8398C129.783 25.0643 130.037 25.2393 130.317 25.3526C130.597 25.466 130.898 25.515 131.197 25.4964C132.566 25.4964 133.528 24.657 133.528 22.8733V15.7251H137.279Z" fill="#1D2130"/>
<path d="M158.814 20.7354V28.7099H155.014V21.0764C155.014 19.7648 154.418 18.9517 153.215 18.9517C152.011 18.9517 151.251 19.8566 151.251 21.3912V28.7099H147.45V21.0764C147.45 19.7648 146.855 18.9517 145.651 18.9517C144.448 18.9517 143.687 19.8566 143.687 21.3912V28.7099H139.887V15.7252H143.687V16.9187C144.081 16.3914 144.595 15.9739 145.184 15.7036C145.772 15.4335 146.416 15.3191 147.058 15.371C147.7 15.3363 148.341 15.4753 148.916 15.7742C149.491 16.0732 149.982 16.5218 150.338 17.0761C150.756 16.497 151.309 16.0368 151.945 15.7386C152.581 15.4404 153.278 15.314 153.974 15.371C156.939 15.371 158.814 17.4958 158.814 20.7354Z" fill="#1D2130"/>
<path d="M17.4956 6.34693V0.772705H0.519531V39.071H17.4956V33.4967C14.0181 33.4967 10.6829 32.0665 8.22394 29.5207C5.76495 26.975 4.38349 23.5221 4.38349 19.9218C4.38349 16.3215 5.76495 12.8687 8.22394 10.323C10.6829 7.77714 14.0181 6.34693 17.4956 6.34693Z" fill="#1D2130"/>
<path d="M17.4971 6.34766V33.4974C20.9746 33.4974 24.3098 32.0673 26.7688 29.5214C29.2278 26.9757 30.6092 23.5229 30.6092 19.9225C30.6092 16.3222 29.2278 12.8694 26.7688 10.3237C24.3098 7.77786 20.9746 6.34766 17.4971 6.34766Z" fill="#1D2130"/>
<path d="M162.007 15.6465C163.547 15.6465 164.794 14.3546 164.794 12.761C164.794 11.1674 163.547 9.87549 162.007 9.87549C160.468 9.87549 159.22 11.1674 159.22 12.761C159.22 14.3546 160.468 15.6465 162.007 15.6465Z" fill="#1D2130"/>
</g>
<defs>
<clipPath id="clip0_968_558">
<rect width="165.725" height="40" fill="white" transform="translate(0.00488281)"/>
</clipPath>
</defs>
</svg>

<svg width="166" height="40" fill="none" xmlns="http://www.w3.org/2000/svg"><g clip-path="url(#a)" fill="#1D2130"><path d="M40.136 9.757h3.8V28.71h-3.8V9.757ZM46.064 22.218a7.06 7.06 0 0 1 1.124-3.83 6.707 6.707 0 0 1 2.99-2.536 6.44 6.44 0 0 1 3.849-.385 6.586 6.586 0 0 1 3.405 1.896 6.965 6.965 0 0 1 1.811 3.536 7.11 7.11 0 0 1-.394 3.981 6.837 6.837 0 0 1-2.466 3.082 6.488 6.488 0 0 1-3.706 1.142 6.368 6.368 0 0 1-2.547-.511 6.554 6.554 0 0 1-2.158-1.493 6.817 6.817 0 0 1-1.43-2.242 7.003 7.003 0 0 1-.478-2.64Zm9.527 0a3.062 3.062 0 0 0-.523-1.64 2.906 2.906 0 0 0-1.312-1.066 2.797 2.797 0 0 0-1.662-.139 2.863 2.863 0 0 0-1.46.836 3.028 3.028 0 0 0-.769 1.532 3.087 3.087 0 0 0 .177 1.717 2.97 2.97 0 0 0 1.064 1.33 2.818 2.818 0 0 0 1.596.499 2.73 2.73 0 0 0 1.129-.22c.357-.153.68-.38.95-.669.268-.288.476-.63.611-1.005.136-.375.195-.775.174-1.175h.025ZM74.328 15.726v12.342c0 4.354-3.294 6.204-6.626 6.204a6.15 6.15 0 0 1-3.404-.698 6.429 6.429 0 0 1-2.538-2.45l3.206-1.915c.26.542.672.99 1.184 1.282a2.794 2.794 0 0 0 1.679.358c.37.047.746.009 1.1-.112.356-.12.68-.321.951-.587a2.63 2.63 0 0 0 .618-.95c.136-.36.194-.747.168-1.132v-1.194a4.491 4.491 0 0 1-1.638 1.288 4.34 4.34 0 0 1-2.023.391 6.227 6.227 0 0 1-4.479-1.92 6.677 6.677 0 0 1-1.855-4.638c0-1.739.667-3.407 1.855-4.637a6.227 6.227 0 0 1 4.48-1.92 4.34 4.34 0 0 1 2.022.39 4.491 4.491 0 0 1 1.638 1.288v-1.311l3.662-.08Zm-3.662 6.23a3.233 3.233 0 0 0-.45-1.783 3.077 3.077 0 0 0-1.336-1.217 2.948 2.948 0 0 0-1.766-.234 3.004 3.004 0 0 0-1.59.83c-.437.435-.74.995-.867 1.609a3.252 3.252 0 0 0 .15 1.836 3.13 3.13 0 0 0 1.117 1.434c.503.352 1.095.541 1.702.542a2.75 2.75 0 0 0 1.167-.167c.373-.14.714-.358 1-.643.287-.284.513-.627.663-1.008.15-.38.222-.788.21-1.2ZM76.47 22.218a7.06 7.06 0 0 1 1.12-3.827 6.705 6.705 0 0 1 2.988-2.536 6.44 6.44 0 0 1 3.844-.39 6.585 6.585 0 0 1 3.406 1.889 6.964 6.964 0 0 1 1.817 3.529 7.111 7.111 0 0 1-.384 3.979 6.839 6.839 0 0 1-2.455 3.088 6.49 6.49 0 0 1-3.698 1.154 6.38 6.38 0 0 1-2.554-.507 6.564 6.564 0 0 1-2.164-1.491 6.827 6.827 0 0 1-1.436-2.244 7.016 7.016 0 0 1-.485-2.644Zm9.526 0a3.063 3.063 0 0 0-.524-1.64 2.908 2.908 0 0 0-1.314-1.067 2.797 2.797 0 0 0-1.664-.136 2.865 2.865 0 0 0-1.459.84 3.028 3.028 0 0 0-.766 1.535 3.09 3.09 0 0 0 .182 1.718 2.968 2.968 0 0 0 1.07 1.326 2.819 2.819 0 0 0 1.6.493 2.73 2.73 0 0 0 1.128-.22c.357-.153.68-.38.949-.669.269-.288.477-.63.612-1.005.135-.375.194-.775.173-1.175h.013ZM91.507 12.25c0-.463.132-.914.38-1.298s.6-.683 1.012-.86a2.183 2.183 0 0 1 1.303-.133c.437.09.84.313 1.154.64.316.326.53.742.618 1.195a2.41 2.41 0 0 1-.129 1.349 2.32 2.32 0 0 1-.83 1.047c-.371.257-.807.394-1.253.394a2.242 2.242 0 0 1-1.587-.692 2.403 2.403 0 0 1-.668-1.643Zm.367 3.475h3.8v12.984h-3.8V15.725ZM111.942 22.217a6.764 6.764 0 0 1-.361 2.542 6.6 6.6 0 0 1-1.277 2.203 6.346 6.346 0 0 1-1.996 1.526 6.156 6.156 0 0 1-2.409.615 4.563 4.563 0 0 1-2.075-.343 4.726 4.726 0 0 1-1.726-1.244v6.414h-3.8V15.725h3.8v1.22a4.716 4.716 0 0 1 1.727-1.238 4.553 4.553 0 0 1 2.074-.336 6.163 6.163 0 0 1 2.4.611c.754.366 1.43.88 1.991 1.516a6.62 6.62 0 0 1 1.28 2.19c.283.81.409 1.669.372 2.53Zm-3.801 0a3.169 3.169 0 0 0-.541-1.699 3.007 3.007 0 0 0-1.358-1.105 2.9 2.9 0 0 0-1.724-.142 2.958 2.958 0 0 0-1.51.869c-.41.437-.687.99-.795 1.588a3.19 3.19 0 0 0 .188 1.78c.231.56.615 1.038 1.107 1.373a2.914 2.914 0 0 0 1.656.51 2.77 2.77 0 0 0 1.18-.207c.376-.155.714-.39.996-.69.281-.299.498-.657.636-1.05.137-.392.194-.81.165-1.227ZM123.508 24.814c0 2.99-2.534 4.263-5.219 4.263a5.344 5.344 0 0 1-3.158-.69 5.606 5.606 0 0 1-2.239-2.406l3.268-1.915c.13.469.41.876.796 1.156.385.279.85.413 1.32.379.899 0 1.355-.288 1.355-.813 0-1.43-6.169-.669-6.169-5.168 0-2.833 2.306-4.25 4.915-4.25a5.349 5.349 0 0 1 2.853.675 5.591 5.591 0 0 1 2.113 2.093l-3.268 1.784a1.903 1.903 0 0 0-.679-.829 1.81 1.81 0 0 0-1.006-.312c-.658 0-1.052.262-1.052.721 0 1.495 6.17.512 6.17 5.312ZM137.279 15.725V28.71h-3.801v-1.22c-.432.54-.98.967-1.601 1.248-.62.28-1.296.405-1.972.365-2.534 0-4.7-1.875-4.7-5.377v-8h3.801v7.41c-.03.31.006.622.104.916.098.295.257.563.465.788.208.224.462.4.742.513.28.113.581.162.88.143 1.369 0 2.331-.839 2.331-2.623v-7.148h3.751ZM158.814 20.735v7.975h-3.8v-7.634c0-1.311-.596-2.124-1.799-2.124-1.204 0-1.964.905-1.964 2.44v7.318h-3.801v-7.634c0-1.311-.595-2.124-1.799-2.124-1.203 0-1.964.905-1.964 2.44v7.318h-3.8V15.725h3.8v1.194a3.904 3.904 0 0 1 1.497-1.215 3.76 3.76 0 0 1 1.874-.333 3.605 3.605 0 0 1 1.858.403 3.748 3.748 0 0 1 1.422 1.302c.418-.579.971-1.04 1.607-1.337a4.002 4.002 0 0 1 2.029-.368c2.965 0 4.84 2.125 4.84 5.364ZM17.496 6.347V.773H.52V39.07h16.976v-5.574c-3.478 0-6.813-1.43-9.272-3.976-2.46-2.546-3.84-5.999-3.84-9.6 0-3.6 1.38-7.052 3.84-9.598 2.459-2.546 5.794-3.976 9.272-3.976ZM17.497 6.348v27.15c3.478 0 6.813-1.43 9.272-3.977 2.459-2.545 3.84-5.998 3.84-9.599 0-3.6-1.381-7.053-3.84-9.598-2.46-2.546-5.794-3.976-9.272-3.976ZM162.007 15.646c1.54 0 2.787-1.291 2.787-2.885 0-1.594-1.247-2.886-2.787-2.886-1.539 0-2.787 1.292-2.787 2.886s1.248 2.886 2.787 2.886Z"/></g><defs><clipPath id="a"><path fill="#fff" transform="translate(.005)" d="M0 0h165.725v40H0z"/></clipPath></defs></svg>
